storage/app/icons/phosphoricons/light/bell-ringing-light.svg

<svg xmlns="http://www.w3.org/2000/svg" fill="currentColor" viewBox="0 0 256 256"><path d="M223.05 69.33a6 6 0 0 1-8.05-2.57 96 96 0 0 0-34.2-37.68 6 6 0 0 1 6.4-10.15 109.26 109.26 0 0 1 38.41 42.31 6 6 0 0 1-2.56 8.09M41 66.76a96 96 0 0 1 34.2-37.68 6 6 0 0 0-6.4-10.15 109.26 109.26 0 0 0-38.41 42.31A6 6 0 1 0 41 66.76m179 110.18A14 14 0 0 1 208 198h-42.5a38 38 0 0 1-75 0H48a14 14 0 0 1-12.06-21.06C45.13 161.09 50 138.63 50 112a78 78 0 0 1 156 0c0 27 4.74 48.86 14.08 64.94ZM153.29 198h-50.58a26 26 0 0 0 50.58 0m56.42-15C199.29 165 194 141.15 194 112a66 66 0 0 0-132 0c0 29.16-5.29 53-15.71 71a2 2 0 0 0 0 2 1.9 1.9 0 0 0 1.7 1H208a1.9 1.9 0 0 0 1.7-1 2 2 0 0 0 .01-2"/></svg>

<svg xmlns="http://www.w3.org/2000/svg" viewBox="0 0 256 256" fill="currentColor"><path d="M223.05,69.33A6,6,0,0,1,215,66.76,96,96,0,0,0,180.8,29.08a6,6,0,0,1,6.4-10.15,109.26,109.26,0,0,1,38.41,42.31A6,6,0,0,1,223.05,69.33ZM41,66.76A96,96,0,0,1,75.2,29.08a6,6,0,0,0-6.4-10.15A109.26,109.26,0,0,0,30.39,61.24,6,6,0,1,0,41,66.76Zm179,110.18A14,14,0,0,1,208,198h-42.5a38,38,0,0,1-75,0H48a14,14,0,0,1-12.06-21.06C45.13,161.09,50,138.63,50,112a78,78,0,0,1,156,0C206,139,210.74,160.86,220.08,176.94ZM153.29,198H102.71a26,26,0,0,0,50.58,0Zm56.42-15C199.29,165,194,141.15,194,112a66,66,0,0,0-132,0c0,29.16-5.29,53-15.71,71a2,2,0,0,0,0,2,1.9,1.9,0,0,0,1.7,1H208a1.9,1.9,0,0,0,1.7-1A2,2,0,0,0,209.71,183Z"/></svg>
